<?xml version="1.0" encoding="UTF-8"?>
<map version="1.10" tiledversion="1.12.1" orientation="orthogonal" renderorder="right-down" width="38" height="88" tilewidth="16" tileheight="16" infinite="0" nextlayerid="4" nextobjectid="1">
 <editorsettings>
  <export format="json"/>
 </editorsettings>
 <tileset firstgid="1" source="kenny-tiny-town-tilemap-packed.tsx"/>
 <tileset firstgid="133" source="心臓の庭園.tsx"/>
 <tileset firstgid="1157" source="心臓の庭園2.tsx"/>
 <layer id="1" name="Floor" width="38" height="88">
  <data encoding="csv">
3,3,2,2,2,3,3,2,2,2,2,3,2,2,3,2,3,3,3,2,3,2,3,3,3,2,3,2,3,3,2,2,3,3,3,3,3,3,
2,3,2,3,2,3,3,2,3,2,2,3,2,3,3,3,3,3,3,3,2,2,2,3,3,3,3,2,2,2,3,3,3,2,2,2,3,2,
3,2,3,2,3,3,2,3,2,3,2,3,3,3,2,2,2,3,3,3,2,2,2,3,2,3,2,3,2,2,3,3,3,3,2,2,2,3,
3,3,2,3,3,2,3,3,2,3,2,2,2,3,3,2,3,3,3,2,3,2,3,2,3,3,2,3,3,2,3,3,2,3,2,3,2,2,
3,2,3,3,3,3,2,2,2,2,2,3,2,2,2,3,2,3,3,3,2,3,2,3,2,3,3,3,2,3,3,2,3,2,2,2,2,3,
3,2,3,2,3,2,2,2,2,2,2,3,2,2,2,3,2,2,3,3,3,2,3,3,2,2,2,2,2,2,3,2,2,3,2,3,2,3,
3,2,2,2,3,2,2,2,3,2,3,3,2,2,2,3,2,2,2,3,2,3,2,2,2,2,2,2,3,2,2,2,2,2,3,2,3,2,
3,2,3,3,2,3,2,3,2,3,2,3,2,3,3,3,3,3,3,2,2,3,3,3,2,3,2,3,2,2,3,3,2,3,2,2,3,2,
2,3,3,3,3,3,2,2,2,2,3,2,3,3,2,3,2,2,2,3,2,3,2,2,2,3,2,2,3,3,2,3,3,2,3,2,3,2,
3,2,2,2,3,3,3,2,2,3,3,3,3,2,2,2,3,2,3,2,2,2,3,3,3,3,2,2,3,3,3,2,3,2,2,3,2,3,
2,3,2,3,3,3,2,3,2,2,2,3,3,3,3,3,3,2,2,2,2,2,3,3,3,3,3,2,3,3,3,3,2,3,2,2,2,2,
3,3,3,2,2,2,2,3,2,2,2,2,3,3,2,3,2,2,2,3,3,3,2,2,3,2,3,2,2,3,2,2,3,3,2,2,3,3,
2,2,2,2,2,2,2,2,2,3,3,2,2,2,2,2,3,3,2,2,3,2,2,3,2,2,2,2,2,3,3,3,3,2,2,3,3,2,
2,2,3,2,3,3,2,2,2,3,3,3,3,3,2,2,3,2,2,3,2,3,3,2,3,2,2,2,2,3,2,3,2,2,2,2,2,2,
3,2,3,2,3,2,3,3,2,3,3,2,3,3,2,3,3,2,3,2,3,2,3,3,3,2,3,3,2,2,3,3,2,3,3,2,2,2,
3,3,2,2,3,2,3,2,2,3,3,2,2,3,2,2,2,3,2,2,3,2,3,2,3,2,2,2,2,2,3,2,3,2,2,3,3,3,
2,2,2,3,3,3,2,2,3,2,2,3,2,3,3,2,2,2,2,2,3,3,3,2,3,2,3,2,2,3,3,2,3,2,2,3,2,3,
3,3,2,2,3,3,3,2,2,2,2,3,2,2,3,2,3,3,3,2,2,2,3,2,3,3,2,2,3,2,2,2,3,3,3,3,2,2,
3,3,3,2,3,2,3,2,2,2,2,2,3,3,3,3,3,3,3,2,2,2,2,2,2,2,2,2,2,2,3,2,2,3,3,2,2,2,
3,2,3,2,2,2,3,2,3,2,2,2,2,2,3,2,3,2,3,3,3,2,2,3,2,3,2,2,2,2,3,3,3,3,2,2,2,3,
2,2,2,3,2,2,2,3,2,3,2,2,3,2,3,3,3,2,3,2,2,2,3,3,3,3,2,3,2,2,2,2,2,2,2,3,2,2,
3,3,3,3,3,2,3,3,3,3,3,3,2,2,3,3,2,3,2,2,2,3,2,2,3,3,3,3,3,3,3,2,2,2,2,2,2,3,
2,3,2,2,2,3,3,3,3,3,3,3,2,3,2,2,2,3,2,3,3,2,3,3,2,3,3,2,2,2,2,3,2,2,3,3,2,2,
3,2,3,3,3,2,3,2,2,3,3,3,3,3,2,2,3,3,3,3,2,3,2,3,2,3,2,2,2,2,2,3,2,3,2,2,2,3,
3,3,2,2,2,2,3,3,3,2,3,3,2,2,3,2,2,2,3,3,3,3,3,2,3,2,2,3,2,2,3,3,3,2,2,3,2,2,
3,2,3,2,3,3,2,2,2,2,2,3,2,3,3,2,3,2,3,3,2,2,2,2,2,2,2,2,2,2,3,2,3,2,3,2,3,3,
2,3,3,3,3,2,2,2,2,3,3,2,3,2,3,3,2,2,2,2,2,3,3,2,2,2,2,3,2,3,3,3,2,2,2,2,3,2,
3,3,3,2,3,3,2,2,3,3,2,2,2,3,3,3,2,2,3,2,2,3,3,3,2,3,3,3,2,2,2,3,3,3,3,2,3,2,
2,2,2,2,2,3,3,2,3,3,2,2,3,2,2,3,3,3,3,3,3,2,2,3,3,2,2,3,3,2,2,3,3,2,2,2,2,3,
2,2,2,3,3,2,3,2,3,3,3,2,3,2,3,3,2,3,2,3,3,2,2,3,3,3,3,2,2,3,2,3,3,3,2,2,3,3,
2,2,3,2,2,2,2,3,3,3,3,2,3,2,2,3,2,3,3,2,3,2,2,2,3,3,3,2,3,3,2,2,2,3,2,3,3,3,
3,3,2,3,2,2,3,3,2,2,3,2,2,2,2,3,2,2,2,2,2,2,2,3,3,2,3,3,3,2,3,3,3,2,3,2,2,2,
3,2,3,2,2,3,2,2,3,3,2,3,3,3,2,3,2,2,2,2,2,2,2,3,2,2,2,3,2,2,3,3,3,3,3,2,2,2,
3,2,2,2,3,3,2,3,2,2,3,3,3,3,2,3,3,3,3,2,2,3,2,2,2,2,2,3,2,2,3,2,3,2,3,2,2,3,
2,3,2,2,2,2,2,3,3,3,2,3,2,2,2,3,3,2,2,3,3,2,2,3,2,3,2,2,2,3,2,2,2,3,2,2,2,2,
3,2,3,2,3,2,3,3,3,3,3,3,2,3,3,2,3,3,2,3,3,3,3,2,2,2,2,2,3,2,2,3,2,2,2,2,2,2,
3,3,3,3,2,3,3,2,3,3,3,2,3,2,2,2,2,2,2,3,2,2,2,2,3,2,2,3,2,2,2,2,2,3,3,3,3,3,
2,3,3,3,3,3,3,3,3,2,3,2,3,2,2,2,3,2,2,2,2,3,2,3,3,3,3,3,3,2,3,3,3,3,3,3,3,3,
2,3,3,2,3,3,3,3,2,2,2,2,3,2,3,3,2,3,3,3,2,2,2,2,2,2,2,3,2,2,2,3,3,3,2,2,2,2,
3,2,3,3,2,3,2,3,3,2,2,3,3,2,2,2,2,3,3,2,3,2,3,2,3,3,3,2,2,3,3,2,2,2,3,2,3,3,
3,3,2,2,3,2,2,3,3,2,2,2,3,3,3,2,2,3,3,2,3,3,3,2,2,3,2,3,2,3,3,2,2,2,2,2,3,3,
3,3,3,2,2,3,2,3,2,2,2,2,2,2,2,2,2,3,2,2,3,3,3,2,3,2,3,3,3,2,2,2,3,3,3,3,3,3,
3,2,2,3,2,3,2,3,3,2,2,3,3,2,2,2,2,2,3,3,2,3,3,3,2,3,3,2,2,2,3,2,2,3,3,3,2,2,
2,3,2,2,2,3,3,2,2,3,2,2,3,2,2,2,3,2,3,3,3,2,2,2,2,3,2,3,2,3,3,3,3,2,2,2,2,3,
2,2,3,2,3,3,3,3,2,2,2,2,3,2,2,2,3,2,3,2,3,3,3,2,2,2,2,3,3,2,2,2,3,3,3,2,2,3,
2,2,3,2,2,3,2,3,3,3,2,3,3,3,2,2,3,3,2,3,3,3,2,2,2,3,3,3,3,2,2,2,2,3,3,3,2,2,
3,3,3,2,2,3,2,3,3,2,3,3,2,2,2,2,2,2,2,2,3,3,3,3,2,2,2,2,2,3,2,2,3,2,3,2,2,2,
3,3,3,3,3,2,3,2,2,2,3,3,2,3,2,2,2,2,3,3,3,3,2,2,2,3,3,2,3,3,3,2,2,3,2,2,2,3,
3,2,2,3,3,3,2,2,3,3,3,3,3,2,2,2,3,2,3,2,3,3,3,3,3,3,3,3,2,3,3,3,2,2,2,3,2,3,
2,3,3,3,2,2,2,3,2,3,2,3,3,3,2,2,2,2,2,2,3,2,3,3,3,2,2,3,3,3,2,2,3,3,3,2,3,2,
3,3,2,3,2,3,3,2,2,3,2,3,2,2,2,3,2,3,3,2,2,3,2,2,3,3,2,3,2,2,3,2,2,2,3,2,2,2,
3,3,3,3,3,3,3,3,3,3,3,3,3,2,2,3,3,3,2,3,2,3,3,3,2,3,2,2,2,2,2,2,3,3,2,2,2,2,
3,2,2,3,3,3,2,3,3,2,2,3,2,3,3,3,3,3,2,2,3,3,2,3,2,3,2,2,3,3,2,3,2,2,2,3,3,3,
2,3,3,2,3,2,3,3,2,2,2,3,3,3,3,3,3,2,3,2,2,2,3,2,3,2,3,3,2,3,2,2,2,2,2,3,3,3,
3,3,3,3,3,2,3,3,2,3,3,3,3,3,3,2,3,3,3,3,2,3,3,3,2,2,2,2,3,3,3,2,3,2,3,3,2,2,
3,3,3,2,2,2,3,2,2,3,2,2,2,3,2,2,3,3,2,3,3,2,3,2,3,3,2,3,2,3,2,3,3,3,2,2,2,3,
3,3,3,3,3,2,2,2,2,3,2,3,2,2,3,2,2,3,3,3,3,2,2,3,2,2,2,2,2,3,3,3,3,3,3,3,3,3,
3,3,3,3,2,2,3,3,3,2,3,3,2,3,3,2,3,2,3,3,3,2,3,3,3,2,2,3,2,3,2,3,3,3,3,2,2,2,
2,2,3,2,3,2,3,2,3,3,3,3,3,3,2,2,2,2,3,2,2,3,2,3,3,2,3,3,2,2,3,3,3,3,2,3,2,3,
3,3,2,2,2,3,2,2,3,3,3,3,2,2,2,3,3,3,3,3,2,2,2,3,2,3,2,3,3,3,2,3,3,3,3,2,3,2,
2,3,3,3,3,2,3,3,3,2,2,2,2,2,3,3,2,3,2,3,3,2,3,2,2,3,3,2,2,2,3,3,2,3,2,2,3,2,
2,2,2,2,2,2,3,2,3,3,2,2,2,3,2,3,3,2,3,2,2,3,3,2,3,2,2,3,3,3,3,2,3,2,3,2,3,3,
3,3,3,3,3,3,3,3,2,3,2,2,3,3,2,3,3,2,3,3,2,3,2,3,2,3,2,2,2,2,3,2,2,3,3,3,3,3,
3,2,2,3,2,2,3,2,3,3,2,3,2,3,2,3,3,2,3,3,2,2,3,3,3,3,2,2,2,2,3,3,2,2,3,3,3,2,
2,3,2,2,2,2,3,2,3,3,3,3,3,2,2,2,3,3,2,3,2,2,3,3,3,3,3,2,2,3,2,3,3,2,2,2,3,2,
3,3,2,3,3,2,3,2,2,3,3,2,2,3,3,2,2,2,2,2,2,3,3,2,2,2,3,2,2,3,3,3,2,2,2,2,2,2,
2,2,3,3,2,2,2,2,3,3,3,2,2,2,2,3,2,2,3,3,3,2,2,2,3,2,3,3,3,2,3,2,3,3,3,3,3,3,
3,2,2,2,3,3,2,2,2,2,2,2,2,2,3,2,2,3,3,2,2,2,2,2,2,2,2,3,3,3,3,3,3,2,2,2,2,3,
2,3,3,3,2,3,2,3,2,2,2,3,2,3,2,3,2,3,3,3,3,2,2,3,3,2,3,3,2,2,2,3,3,3,3,3,3,2,
2,3,2,3,3,2,2,2,3,3,3,3,3,3,3,2,2,3,3,3,3,2,3,3,2,2,2,2,2,2,3,3,2,3,3,2,3,3,
3,3,2,2,2,3,3,3,3,3,2,2,2,2,2,2,2,2,2,3,3,2,2,2,3,3,2,2,2,2,2,2,2,2,3,2,3,2,
3,2,2,2,3,3,2,3,3,3,3,3,2,3,3,2,3,3,2,3,2,2,3,2,2,2,2,2,2,3,2,3,2,2,3,3,2,3,
3,3,3,3,2,3,3,3,3,3,2,3,2,2,2,2,2,2,2,3,3,2,2,2,3,3,2,3,3,3,2,2,3,3,2,3,2,2,
3,2,2,3,3,2,3,2,3,3,3,3,3,2,2,3,2,3,2,3,2,2,2,2,2,2,3,3,2,2,3,2,3,3,2,2,2,2,
3,2,2,3,3,2,2,2,2,2,2,3,3,3,3,2,3,3,2,3,3,2,3,2,2,3,2,3,2,2,3,2,2,3,3,2,2,2,
3,3,2,3,2,3,2,3,2,3,3,2,2,2,3,3,3,3,3,2,3,3,3,3,3,2,2,2,2,2,3,3,3,2,2,3,3,2,
3,3,3,3,2,3,2,2,2,3,2,2,2,2,2,3,3,2,2,2,2,2,2,3,3,2,2,3,3,3,2,3,2,3,3,2,3,2,
3,2,3,3,2,2,2,2,2,3,3,2,3,3,3,2,2,3,2,3,2,2,2,3,2,3,3,2,2,3,3,2,2,3,2,3,3,3,
2,3,3,3,2,2,2,2,3,3,2,2,3,2,2,3,3,3,2,2,3,2,3,3,3,3,3,2,3,2,2,2,3,3,2,3,3,3,
3,2,2,2,3,2,2,3,2,3,2,3,2,3,2,3,3,2,3,2,3,3,2,2,3,2,3,3,3,2,3,2,3,3,3,2,2,2,
2,2,3,2,2,3,2,2,3,3,3,3,3,3,3,3,2,2,2,2,3,3,2,2,2,3,3,3,3,3,3,3,3,3,2,2,3,2,
2,3,2,3,3,2,3,2,2,3,3,2,2,3,2,2,2,3,3,3,2,3,2,3,2,2,3,3,3,3,2,3,2,2,2,2,3,2,
2,3,2,2,2,3,2,3,3,2,2,3,3,2,3,2,2,3,2,3,3,3,2,2,2,2,2,2,2,3,3,3,2,3,2,3,2,3,
2,2,2,2,3,2,3,3,2,2,3,2,2,2,2,2,3,3,2,3,2,3,3,3,3,3,2,3,2,2,3,2,2,2,3,3,3,2,
2,2,3,2,3,3,2,2,2,3,3,2,3,3,3,3,2,2,2,2,2,2,3,2,3,3,2,3,2,2,3,2,2,2,2,2,2,3,
2,3,3,3,3,2,3,3,3,2,3,3,2,3,2,3,3,3,3,3,3,3,3,3,2,3,3,3,3,2,3,2,2,2,2,2,3,2,
3,2,2,3,3,2,2,3,2,3,3,3,2,3,3,2,3,3,3,3,2,2,2,3,3,3,2,2,3,2,2,3,2,3,2,3,2,3,
3,3,2,2,3,2,2,3,3,3,2,2,2,3,3,3,3,3,2,2,2,2,2,2,3,2,3,2,3,2,3,2,3,2,2,3,3,3
</data>
 </layer>
 <layer id="2" name="Wall" width="38" height="88">
  <data encoding="csv">
0,0,0,0,0,0,0,0,0,0,0,0,0,0,0,0,0,0,0,0,0,205,893,894,895,896,897,898,899,900,0,0,0,0,0,0,0,0,
0,0,0,0,0,0,0,0,0,0,0,0,0,0,0,0,0,0,0,0,0,0,925,926,927,928,929,930,931,932,0,0,0,0,0,0,0,0,
0,0,0,0,0,0,0,0,0,0,0,0,0,0,0,0,0,0,0,0,0,0,957,958,959,960,961,962,963,964,0,0,0,0,0,0,0,0,
0,0,0,197,198,199,200,201,202,203,204,0,0,0,0,0,0,0,0,0,0,0,0,303,304,305,306,0,0,0,0,0,0,0,0,0,0,0,
0,0,0,229,230,231,232,233,234,235,236,0,0,0,0,0,0,0,0,0,0,0,0,335,336,337,338,0,0,0,0,0,0,0,0,0,0,0,
0,0,0,261,262,263,264,265,266,267,268,0,0,0,0,0,0,0,0,0,0,0,0,0,0,0,0,0,0,0,0,0,0,0,0,0,0,0,
0,0,0,293,294,295,296,297,298,299,300,0,0,0,0,0,0,0,0,0,0,0,0,0,0,0,0,0,0,0,0,0,0,0,0,0,0,0,
0,0,0,325,326,327,328,329,330,331,332,0,0,0,0,0,0,0,0,0,0,0,0,0,0,0,0,0,0,0,0,0,0,0,0,0,0,0,
0,0,0,357,358,359,360,361,362,363,364,0,0,0,0,0,0,0,0,0,0,0,0,0,0,0,0,0,0,0,0,0,0,0,0,0,0,0,
0,0,0,0,0,0,0,0,0,0,0,0,0,0,0,0,0,0,0,0,0,0,0,0,0,0,0,0,0,0,0,0,0,0,0,0,0,0,
0,0,0,0,0,0,0,0,0,0,0,0,0,0,0,0,0,0,0,0,0,0,0,0,0,0,0,0,0,0,0,0,0,0,0,0,0,0,
0,0,0,0,0,0,0,0,0,0,0,0,0,0,0,0,0,0,0,0,0,0,0,0,0,0,0,0,0,0,0,0,0,0,0,0,0,0,
0,0,0,0,0,0,0,0,0,0,0,0,0,0,0,0,0,0,0,0,0,0,0,0,797,798,799,800,801,802,803,804,0,0,0,0,0,0,
0,0,0,0,0,0,0,0,0,0,0,0,0,0,0,0,0,0,0,0,0,0,0,0,829,830,831,832,833,834,835,836,0,0,0,0,0,0,
0,0,0,0,0,0,0,0,0,0,0,0,0,0,0,0,0,0,0,0,0,0,0,0,861,862,863,864,865,866,867,868,0,0,0,0,0,0,
0,0,0,0,0,0,0,0,0,0,0,0,0,0,0,0,0,0,0,0,0,0,0,0,893,894,895,896,897,898,899,900,0,0,0,0,0,0,
0,0,0,0,0,0,0,0,0,0,0,0,0,0,0,0,0,0,0,0,0,0,0,0,925,926,927,928,929,930,931,932,0,0,0,0,0,0,
0,0,0,0,0,0,0,0,0,0,0,0,0,0,0,0,0,0,0,0,0,0,0,0,957,958,959,960,961,962,963,964,0,0,0,0,0,0,
0,0,0,0,0,0,0,0,0,0,0,0,0,0,0,0,0,0,0,0,0,0,0,0,0,0,0,0,0,0,0,0,0,0,0,0,0,0,
0,0,0,0,0,0,0,0,0,0,205,206,207,208,209,210,211,212,0,0,0,0,0,0,0,0,0,0,0,0,0,0,0,0,0,0,0,0,
0,0,0,0,0,0,0,0,0,0,237,238,239,240,241,242,243,244,0,0,0,0,0,0,0,0,0,0,0,0,0,1870,1871,1872,1873,1874,1875,1876,
0,0,0,0,0,0,0,0,0,0,269,270,271,272,273,274,275,276,0,0,0,0,0,0,0,0,0,0,0,0,0,1902,1903,1904,1905,1906,1907,1908,
0,0,0,0,0,0,0,0,0,0,301,302,303,304,305,306,307,308,0,0,0,0,0,0,0,0,0,0,0,0,0,1934,1935,1936,1937,1938,1939,1940,
0,0,0,0,0,0,0,0,0,0,333,334,335,336,337,338,339,340,0,0,0,0,0,0,0,0,0,0,0,0,0,1966,1967,1968,1969,1970,1971,1972,
0,0,0,0,0,0,0,0,0,0,365,366,367,368,369,370,371,372,0,0,0,0,0,0,0,0,0,0,0,0,0,1998,1999,2000,2001,2002,2003,2004,
0,0,0,0,0,0,0,0,0,0,0,0,0,0,0,0,0,0,0,0,0,0,0,0,0,0,0,0,0,0,0,2030,2031,2032,2033,2034,2035,2036,
0,0,0,0,0,0,0,0,0,0,0,0,0,0,0,0,0,0,0,0,0,0,0,0,0,0,0,0,0,0,0,2062,2063,2064,2065,2066,2067,2068,
0,0,0,0,0,0,0,0,0,0,0,0,0,0,0,0,0,0,0,0,0,0,0,0,0,0,0,0,0,0,0,2094,2095,2096,2097,2098,2099,2100,
0,0,0,0,0,0,0,0,0,0,0,0,0,0,0,0,0,0,0,0,0,0,0,0,0,0,0,0,0,0,0,0,0,0,0,0,0,0,
0,0,0,0,0,0,0,0,0,0,0,0,0,0,0,0,0,0,0,0,0,0,0,0,0,0,0,0,0,0,0,0,0,0,0,0,0,0,
0,0,0,0,0,0,0,0,0,0,0,0,0,0,0,0,0,0,0,0,0,0,0,0,0,0,0,0,0,0,0,0,0,0,0,0,0,0,
0,0,0,0,0,0,0,0,0,0,0,0,0,0,0,0,0,0,0,0,0,0,0,0,0,0,0,0,0,0,0,0,0,0,0,0,0,0,
0,0,0,205,206,207,208,209,210,211,212,0,0,0,0,0,0,0,0,0,0,0,0,0,0,0,0,0,0,0,0,0,0,0,0,0,0,0,
0,0,0,237,238,239,240,241,242,243,244,0,0,0,0,0,0,0,0,0,0,0,0,0,0,0,0,0,0,0,0,0,0,0,0,0,0,0,
0,0,0,269,270,271,272,273,274,275,276,0,0,0,0,0,0,0,0,0,0,0,0,0,0,0,0,0,0,0,0,0,0,0,0,0,0,0,
0,0,0,301,302,303,304,305,306,307,308,0,0,0,0,0,0,0,0,0,0,0,0,0,0,0,0,0,0,0,0,0,0,0,0,0,0,0,
0,0,0,333,334,335,336,337,338,339,340,0,0,0,0,0,0,0,0,0,0,0,0,0,0,0,0,0,0,0,0,0,0,0,0,0,0,0,
0,0,0,365,366,367,368,369,370,371,372,0,0,0,0,0,0,0,0,0,0,0,0,0,0,0,0,0,0,0,0,0,0,0,0,0,0,0,
0,0,0,0,0,0,0,0,0,0,0,0,0,0,0,0,0,0,0,0,0,0,0,0,0,0,0,0,0,0,0,0,0,0,0,0,0,0,
0,0,0,0,0,0,0,0,0,0,0,0,0,0,0,0,0,0,0,0,0,0,0,0,0,0,0,0,0,0,0,0,0,0,0,0,0,0,
0,0,0,1870,1871,1872,1873,1874,1875,1876,0,0,0,0,0,0,0,0,0,0,0,0,0,0,0,0,0,0,0,0,0,0,0,0,0,0,0,0,
0,0,0,1902,1903,1904,1905,1906,1907,1908,0,0,0,0,0,0,197,198,199,200,201,202,203,204,0,0,0,0,0,0,0,0,0,797,798,799,800,801,
0,0,0,1934,1935,1936,1937,1938,1939,1940,0,0,0,0,0,0,229,230,231,232,233,234,235,236,0,0,0,0,0,0,0,0,0,829,830,831,832,833,
0,0,0,1966,1967,1968,1969,1970,1971,1972,0,0,0,0,0,0,261,262,263,264,265,266,267,268,0,0,0,0,0,0,0,0,0,861,862,1431,1432,1433,
0,0,0,1998,1999,2000,2001,2002,2003,2004,0,0,0,0,0,0,293,294,295,296,297,298,299,300,0,0,0,0,0,0,0,0,0,893,894,1463,1464,1465,
0,0,0,2030,2031,2032,2033,2034,2035,2036,0,0,0,0,0,0,325,326,327,328,329,330,331,332,0,0,0,0,0,0,0,0,0,925,926,1495,1496,1497,
0,0,0,2062,2063,2064,2065,2066,2067,2068,0,0,0,0,0,0,357,358,359,360,361,362,363,364,0,0,0,0,0,0,0,0,0,957,958,1527,1528,1529,
0,0,0,2094,2095,2096,2097,2098,2099,2100,0,0,0,0,0,0,0,0,0,0,0,0,0,0,0,0,0,0,0,0,0,0,0,0,0,0,0,0,
0,0,0,0,0,0,0,0,0,0,0,0,0,0,0,0,0,0,0,0,0,0,0,0,0,0,0,0,0,0,0,0,0,0,0,0,0,0,
0,0,0,0,0,0,0,0,0,0,0,0,0,0,0,0,0,0,0,0,0,0,0,0,0,0,0,1436,1437,1438,1439,1440,1441,1442,1443,1444,0,0,
0,0,0,0,0,0,0,0,0,0,0,0,0,0,0,0,0,0,0,0,0,0,0,0,0,0,0,1468,1469,1470,1471,1472,1473,1474,1475,1476,0,0,
0,0,0,0,0,0,0,0,0,0,0,0,0,0,0,0,0,0,0,0,0,0,0,0,0,0,0,1500,1501,1502,1503,1504,1505,1506,1507,1508,0,0,
0,0,0,0,0,0,0,0,0,0,0,0,0,0,0,0,0,0,0,0,0,0,0,0,0,0,0,1532,1533,1534,1535,1536,1537,1538,1539,1540,0,0,
0,0,0,0,0,0,0,0,0,0,0,0,0,0,0,0,0,0,0,0,0,0,0,0,0,0,0,0,0,0,0,0,0,0,0,0,0,0,
0,0,0,197,198,199,200,201,202,203,204,0,0,0,0,0,0,0,0,0,0,0,0,0,0,0,0,0,0,0,0,0,0,0,0,0,0,0,
0,0,0,229,230,231,232,233,234,235,236,0,0,0,0,0,0,0,0,0,0,0,0,0,0,0,0,0,0,0,0,0,0,0,0,0,0,0,
0,0,0,261,262,263,264,265,266,267,268,0,0,0,0,0,0,0,0,0,0,0,0,0,0,0,0,0,0,0,0,0,0,0,0,0,0,0,
0,0,0,293,294,295,296,297,298,299,300,0,0,0,0,0,0,0,0,0,0,0,0,0,0,0,0,0,0,0,0,0,0,0,0,0,0,0,
0,0,0,325,326,327,328,329,330,331,332,0,0,0,0,0,0,0,0,0,0,0,0,0,0,0,0,0,0,0,0,0,0,0,0,0,0,0,
0,0,0,357,358,359,360,361,362,363,364,0,0,0,0,0,0,0,0,0,0,0,0,0,0,0,0,0,0,0,0,0,0,0,0,0,0,0,
0,0,0,0,0,0,0,0,0,0,0,0,0,0,0,0,0,0,0,0,0,0,0,0,0,0,0,0,0,0,0,0,0,0,0,0,0,0,
0,0,0,0,0,0,0,0,0,0,0,0,0,0,0,0,0,0,0,0,0,0,0,0,0,0,0,0,0,0,0,0,0,0,0,0,0,0,
0,0,0,0,0,0,0,0,0,0,0,0,0,0,0,0,0,0,0,0,0,0,0,0,0,0,0,0,0,0,0,0,0,0,0,0,0,0,
0,0,0,0,0,0,0,0,0,0,0,0,0,0,0,0,205,206,207,208,209,210,211,212,0,0,0,0,0,0,0,0,0,0,0,0,0,0,
0,0,0,0,0,0,0,0,0,0,0,0,0,0,0,0,237,238,239,240,241,242,243,244,0,0,0,0,0,0,0,0,0,0,0,0,0,0,
0,0,0,0,0,0,0,0,0,0,0,0,0,0,0,0,269,270,271,272,273,274,275,276,0,0,0,0,0,0,0,0,0,0,0,0,0,0,
0,0,0,0,0,0,0,0,0,0,0,0,0,0,0,0,301,302,303,304,305,306,307,308,0,0,0,0,0,0,0,0,0,0,0,0,0,0,
0,0,0,0,0,0,0,0,0,0,0,0,0,0,0,0,333,334,335,336,337,338,339,340,0,0,0,0,0,0,1870,1871,1872,1873,1874,1875,1876,0,
0,0,0,0,0,0,0,0,0,0,0,0,0,0,0,0,365,366,367,368,369,370,371,372,0,0,0,0,0,0,1902,1903,1904,1905,1906,1907,1908,0,
0,0,0,0,0,0,0,0,0,0,0,0,0,0,0,0,0,0,0,0,0,0,0,0,0,0,0,0,0,0,1934,1935,1936,1937,1938,1939,1940,0,
0,0,0,0,0,0,0,0,0,0,0,0,0,0,0,0,0,0,0,0,0,0,0,0,0,0,0,0,0,0,1966,1967,1968,1969,1970,1971,1972,0,
0,0,0,0,0,0,0,0,0,0,0,0,0,0,0,0,0,0,0,0,0,0,0,0,0,0,0,0,0,0,1998,1999,2000,2001,2002,2003,2004,0,
0,0,0,0,0,0,0,0,0,0,0,0,0,0,0,0,0,0,0,0,0,0,0,0,0,0,0,0,0,0,2030,2031,2032,2033,2034,2035,2036,0,
0,0,0,0,0,0,0,0,0,0,0,0,0,0,0,0,0,0,0,0,0,0,0,0,0,0,0,0,0,0,2062,2063,2064,2065,2066,2067,2068,0,
0,0,0,0,0,0,0,0,0,0,0,0,0,0,0,0,0,0,0,0,0,197,198,199,200,201,202,203,204,0,2094,2095,2096,2097,2098,2099,2100,0,
0,0,0,0,0,0,0,0,0,0,0,0,0,0,0,0,0,0,0,0,0,229,230,231,232,233,234,235,236,0,0,0,0,0,0,0,0,0,
0,0,0,0,0,0,0,0,0,0,0,0,0,0,0,0,0,0,0,0,0,261,262,263,264,265,266,267,268,0,0,0,0,0,0,0,0,0,
0,0,0,0,0,205,206,207,208,209,210,211,212,0,0,0,0,0,0,0,0,293,294,295,296,297,298,299,300,0,0,0,0,0,0,0,0,0,
0,0,0,0,0,237,238,239,240,241,242,243,244,0,0,0,0,0,0,0,0,325,326,327,328,329,330,331,332,0,0,0,0,0,0,0,0,0,
0,0,0,0,0,269,270,271,272,273,274,275,276,0,0,0,0,0,0,0,0,357,358,359,360,361,362,363,364,0,0,0,0,0,0,0,0,0,
0,0,0,0,0,301,302,303,304,305,306,307,308,0,0,0,0,0,0,0,0,0,0,0,0,0,0,0,0,0,0,0,0,0,0,0,0,0,
0,0,0,0,0,333,334,335,336,337,338,339,340,0,0,0,0,0,0,0,0,0,0,0,0,0,0,0,0,0,0,0,0,0,0,0,0,0,
0,0,0,0,0,365,366,367,368,369,370,371,372,0,0,0,0,0,0,0,0,0,0,0,0,0,0,0,0,0,0,0,0,0,0,0,0,0,
0,0,0,0,0,0,0,0,0,0,0,0,0,0,0,0,0,0,0,0,0,0,0,0,0,0,0,0,0,0,0,0,0,0,0,0,0,0,
0,0,0,0,0,0,0,0,0,0,0,0,0,0,0,0,0,0,0,0,0,0,0,0,0,0,0,0,0,0,0,0,0,0,0,0,0,0,
0,0,0,0,0,0,0,0,0,0,0,0,0,0,0,0,0,0,0,0,0,0,797,798,799,800,801,802,803,804,0,0,0,0,0,0,0,0,
0,0,0,0,0,0,0,0,0,0,0,0,0,0,0,0,0,0,0,0,0,0,829,830,831,832,833,834,835,836,0,0,0,0,0,0,0,0,
0,0,0,0,0,0,0,0,0,0,0,0,0,0,0,0,0,0,0,0,0,0,861,862,863,864,865,866,867,868,0,0,0,0,0,0,0,0
</data>
 </layer>
 <layer id="3" name="Tree" width="38" height="88">
  <data encoding="csv">
0,0,0,0,0,0,0,0,1998,1999,2000,2001,2002,2003,2004,0,0,0,0,0,0,0,0,0,0,0,0,0,0,0,0,0,0,0,0,0,0,0,
0,0,0,0,0,0,0,0,2030,2031,2032,2033,2034,2035,2036,0,0,0,0,0,0,0,0,0,0,0,0,0,0,0,0,0,0,0,0,0,0,0,
0,0,0,0,0,0,0,0,2062,2063,2064,2065,2066,2067,2068,0,0,0,0,0,0,0,0,0,0,0,0,0,0,0,0,0,0,0,0,0,0,0,
0,0,0,0,0,0,0,0,2094,2095,2096,2097,2098,2099,2100,0,0,0,0,0,0,0,0,0,0,0,0,0,0,0,0,0,1554,1555,1556,0,0,0,
0,0,0,0,0,0,0,0,0,0,0,0,0,0,0,0,0,0,0,0,0,0,0,0,0,0,0,0,0,0,0,0,1586,1587,1588,0,0,0,
0,0,0,0,0,0,0,0,0,0,0,0,0,0,0,0,0,0,0,0,0,0,0,0,0,0,0,0,0,0,0,0,1618,1619,1620,0,0,0,
0,0,0,0,0,0,0,0,0,0,0,0,0,0,0,0,0,0,0,0,0,0,1429,1430,0,0,0,0,0,0,0,0,1650,1651,1652,0,0,0,
0,0,0,0,0,0,0,0,0,0,0,0,0,0,0,0,0,0,0,0,0,0,1461,1462,0,0,0,0,0,0,0,0,0,0,0,0,0,0,
0,0,0,0,0,0,0,0,0,0,0,0,0,0,0,0,0,0,0,0,0,0,1493,1494,0,0,0,0,0,0,0,0,0,0,0,0,0,0,
0,0,0,0,0,0,0,0,0,0,0,1683,1684,0,0,0,0,2071,2072,0,0,0,1525,1526,0,0,0,0,0,0,0,0,0,0,0,0,0,0,
0,0,0,0,0,0,0,0,0,0,0,1715,1716,0,0,0,0,2103,2104,0,0,0,0,0,0,0,0,0,0,0,0,0,0,0,0,2071,2072,0,
1873,1874,1875,1876,0,0,0,0,0,0,0,1747,1748,0,0,0,0,0,0,0,0,0,0,0,0,0,0,0,0,0,0,0,0,0,0,2103,2104,0,
1905,1906,1907,1908,0,0,0,0,0,0,0,1779,1780,0,0,0,0,0,0,0,0,0,0,0,0,0,0,0,0,0,0,0,0,0,0,0,0,0,
1937,1938,1939,1940,0,0,0,0,0,0,1815,1816,0,0,0,0,0,0,0,0,0,0,0,0,0,0,0,0,0,0,0,0,0,0,0,0,0,0,
1969,1970,1971,1972,0,0,0,0,0,0,1847,1848,0,0,0,0,0,0,0,0,0,0,0,0,0,0,0,0,0,0,0,0,0,0,0,0,0,0,
2001,2002,2003,2004,0,0,0,0,0,0,1879,1880,0,0,0,0,0,0,0,0,0,0,0,0,0,0,0,0,1554,1555,1556,0,0,0,0,0,0,0,
2033,2034,2035,2036,0,0,0,0,0,0,1911,1912,0,0,0,0,0,0,0,0,0,0,0,0,0,0,0,0,1586,1587,1588,0,0,0,0,0,0,0,
2065,2066,2067,2068,0,0,0,0,0,0,0,0,0,0,0,0,0,0,0,0,0,0,0,0,0,0,0,0,1618,1619,1620,0,0,0,0,0,0,0,
2097,2098,2099,2100,0,0,0,0,0,0,0,0,0,0,0,0,0,0,0,0,0,0,2071,2072,0,0,0,0,1650,1651,1652,0,0,0,0,0,0,0,
0,0,0,0,0,0,0,0,0,0,0,0,0,0,0,0,0,0,0,0,0,0,2103,2104,0,0,0,0,0,0,0,0,0,0,0,0,0,0,
0,0,0,0,1856,1857,1858,0,0,0,0,0,0,0,0,0,0,0,0,0,0,0,0,0,0,0,0,0,0,0,0,0,0,0,0,0,0,0,
0,0,0,0,1888,1889,1890,0,0,0,0,0,0,0,0,0,0,0,0,0,0,0,0,0,0,0,0,0,0,0,0,0,0,0,0,0,0,0,
2071,2072,0,0,1920,1921,1922,0,0,0,0,0,0,1870,1871,1872,1873,1874,1875,1876,0,0,0,0,0,0,0,0,0,0,0,0,0,0,0,0,0,0,
2103,2104,0,0,0,0,0,0,0,0,0,0,0,1902,1903,1904,1905,1906,1907,1908,0,0,0,0,0,0,0,1815,1816,0,0,0,0,0,0,0,0,0,
0,0,0,0,0,0,0,0,0,0,0,0,0,1934,1935,1936,1937,1938,1939,1940,0,0,0,0,0,0,0,1847,1848,0,0,0,0,0,0,0,0,0,
0,0,0,0,0,0,0,0,0,0,0,0,0,1966,1967,1968,1969,1970,1971,1972,0,0,0,0,0,0,0,1879,1880,0,0,0,0,0,0,0,0,0,
0,0,0,0,0,0,0,0,0,0,0,0,0,1998,1999,2000,2001,2002,2003,2004,0,0,0,0,0,0,0,1911,1912,0,0,0,0,0,0,0,0,0,
0,0,0,0,0,0,0,0,0,0,0,0,0,2030,2031,2032,2033,2034,2035,2036,0,0,0,0,0,0,0,0,0,0,0,0,0,0,0,0,0,0,
0,0,0,0,0,0,0,0,0,0,0,0,0,2062,2063,2064,2065,2066,2067,2068,0,0,0,0,0,0,0,0,0,0,0,0,0,0,0,0,0,0,
0,0,0,0,0,0,0,0,0,0,0,0,0,2094,2095,2096,2097,2098,2099,2100,0,0,0,0,0,0,0,0,0,0,0,0,0,0,0,0,0,0,
0,0,0,0,0,0,0,0,0,0,0,0,0,0,0,0,0,0,0,0,0,0,0,0,0,0,0,0,0,0,0,0,0,0,0,2082,2083,2084,
0,0,0,0,0,0,0,0,0,0,0,0,0,0,0,0,0,0,0,0,0,0,0,0,0,0,0,0,0,0,0,0,0,0,0,2114,2115,2116,
0,0,0,0,0,0,0,0,0,0,0,0,0,0,0,0,0,0,0,0,0,0,0,0,0,0,0,0,0,0,0,0,0,0,0,2146,2147,2148,
0,0,0,0,0,0,0,0,0,0,0,0,0,0,0,0,0,0,0,0,0,0,0,0,0,0,0,0,0,0,0,0,0,0,0,2178,2179,2180,
0,0,0,0,0,0,0,0,0,0,0,0,0,0,0,0,0,0,0,0,0,0,0,0,0,0,0,0,0,0,0,0,0,0,0,0,0,0,
0,0,0,0,0,0,0,0,0,0,0,0,0,2071,2072,0,0,0,0,0,0,0,0,1207,1208,1209,1210,0,0,0,0,0,0,0,0,0,0,0,
0,0,0,0,0,0,0,0,0,0,0,0,0,2103,2104,0,0,0,0,0,0,0,0,1239,1240,1241,1242,0,0,0,0,0,0,0,0,0,0,0,
0,0,0,0,0,0,0,0,0,0,0,0,0,0,0,0,0,0,0,0,0,0,0,1271,1272,1273,1274,0,2071,2072,0,0,0,0,0,0,0,0,
0,0,0,0,0,0,0,0,0,0,0,0,0,0,0,0,0,0,0,0,0,0,0,0,0,0,0,0,2103,2104,0,0,0,0,0,0,0,0,
0,0,0,0,0,0,0,0,0,0,1309,1310,1311,1312,0,0,0,0,0,0,0,0,0,0,0,0,0,0,0,0,0,0,0,0,0,0,0,0,
0,0,0,0,0,0,0,0,0,0,1341,1342,1343,1344,0,0,0,0,0,0,0,0,0,0,0,0,0,0,0,0,0,0,0,0,0,0,0,0,
0,0,0,0,0,0,0,0,0,0,1373,1374,1375,1376,0,0,0,0,0,0,0,0,0,0,0,0,0,0,0,0,0,0,0,0,0,0,0,0,
0,0,0,0,0,0,0,0,0,0,1405,1406,1407,1408,0,0,0,0,0,0,0,0,0,0,0,0,0,0,0,0,0,0,0,0,0,0,0,0,
0,0,0,0,0,0,0,0,0,0,0,0,0,0,0,0,0,0,0,0,0,0,0,0,0,0,0,0,0,0,0,0,0,0,0,0,0,0,
0,0,0,0,0,0,0,0,0,0,0,0,0,0,0,0,0,0,0,0,0,1815,1816,0,0,0,0,0,0,0,0,0,0,0,0,0,0,0,
0,0,0,0,0,0,0,0,1815,1816,0,0,0,0,0,0,0,0,0,0,0,1847,1848,0,0,0,0,0,0,0,0,0,0,0,0,0,0,0,
0,0,0,0,0,0,0,0,1847,1848,0,0,0,0,0,0,0,0,0,0,0,1879,1880,0,0,0,0,0,0,0,0,0,0,0,0,0,0,0,
0,0,0,0,0,0,0,0,1879,1880,0,0,0,0,0,0,0,0,0,0,0,1911,1912,0,0,0,0,0,0,0,0,0,0,0,0,0,0,0,
0,0,0,0,0,0,0,0,1911,1912,0,0,0,0,0,0,0,0,0,0,0,0,0,0,0,0,0,0,0,0,0,0,0,0,0,0,0,1683,
0,0,0,0,0,0,0,0,0,0,0,0,0,0,0,0,0,0,0,0,0,0,0,0,0,0,0,0,0,0,0,0,0,0,0,0,0,1715,
0,0,0,0,0,0,0,0,0,0,0,0,0,0,0,0,0,0,0,0,0,0,0,0,0,0,0,0,0,0,0,0,0,0,0,0,0,1747,
0,0,0,0,0,0,0,0,0,0,0,0,0,0,0,0,0,0,0,0,0,0,0,0,0,0,0,0,0,0,0,0,0,0,0,0,0,1779,
0,0,0,0,0,0,0,0,0,0,0,0,0,0,0,0,0,0,0,0,0,0,0,0,0,0,0,0,0,0,0,0,0,0,0,0,0,0,
0,0,0,0,0,0,0,0,0,0,0,0,0,0,0,0,0,0,0,0,0,0,0,0,0,0,0,0,0,0,0,0,0,0,0,0,0,0,
0,0,0,0,0,0,0,0,0,0,0,0,0,0,0,0,0,0,0,0,0,0,0,0,0,0,0,0,0,0,0,0,0,0,0,0,0,0,
0,0,0,0,0,0,0,0,0,0,0,0,0,0,0,0,0,0,0,2073,2074,2075,2076,2077,2078,0,0,0,0,0,0,0,0,0,0,0,0,0,
0,0,0,0,0,0,0,0,0,0,0,0,0,0,0,0,0,0,0,2105,2106,2107,2108,2109,2110,0,0,0,0,0,0,0,0,0,0,0,0,0,
0,0,1685,1686,1687,1688,0,0,0,0,0,0,0,0,0,0,0,0,0,2137,2138,2139,2140,2141,2142,0,0,0,0,0,0,0,0,0,0,0,0,0,
0,0,1717,1718,1719,1720,0,0,0,0,0,0,0,0,0,0,0,0,0,2169,2170,2171,2172,2173,2174,0,0,0,0,0,0,0,0,1554,1555,1556,0,0,
0,0,1749,1750,1751,1752,0,0,0,0,0,0,0,0,0,0,0,0,0,0,0,0,0,0,0,0,0,0,0,0,0,0,0,1586,1587,1588,0,0,
0,0,1781,1782,1783,1784,0,0,0,0,0,0,0,0,0,0,0,0,0,0,0,0,0,0,0,0,0,0,0,0,0,0,0,1618,1619,1620,0,0,
0,0,1813,1814,1815,1816,0,0,0,2071,2072,0,0,0,0,0,0,0,0,0,0,0,0,0,0,0,0,0,0,0,0,0,0,1650,1651,1652,0,0,
1684,0,0,0,0,0,0,0,0,2103,2104,0,0,0,0,0,0,0,0,0,0,0,0,0,0,0,0,0,0,0,0,0,0,0,0,0,0,0,
1716,0,0,0,0,0,0,0,0,0,0,0,0,0,0,0,0,0,0,0,0,0,0,0,0,0,0,0,0,0,1856,1857,1858,0,0,0,0,0,
1748,0,0,0,0,0,0,0,0,0,0,0,0,0,0,0,0,0,0,0,0,0,0,0,0,0,0,0,0,0,1888,1889,1890,0,0,0,0,0,
1780,0,0,0,0,0,0,0,0,0,0,0,0,0,0,0,0,0,0,0,0,0,0,0,0,0,0,0,0,0,1920,1921,1922,0,0,0,0,0,
0,0,0,0,0,0,0,0,0,0,0,0,0,0,0,0,1554,1555,1556,0,0,0,0,0,0,0,0,0,0,0,0,0,0,0,0,0,0,0,
0,0,0,0,0,0,0,0,0,0,0,0,0,0,0,0,1586,1587,1588,0,0,0,0,0,0,0,0,0,0,0,0,0,0,0,0,0,0,0,
0,0,0,0,0,0,0,0,0,0,0,0,0,0,0,0,1618,1619,1620,0,0,0,0,0,0,0,0,0,0,0,0,0,0,0,0,0,0,0,
2083,2084,0,0,0,0,0,0,0,0,0,0,0,0,0,0,1650,1651,1652,0,0,0,0,0,0,0,0,0,0,0,0,0,0,0,0,0,0,0,
2115,2116,0,0,0,0,0,0,0,0,0,0,0,0,0,0,0,0,0,0,0,0,0,0,0,0,0,0,0,0,0,0,0,0,0,0,0,0,
2147,2148,0,0,0,0,0,0,0,0,0,0,0,0,0,0,0,0,0,0,0,0,0,0,0,0,0,0,0,0,0,0,0,0,0,0,0,0,
2179,2180,0,0,0,0,0,0,1815,1816,0,0,0,0,0,0,0,0,0,0,0,0,0,0,0,0,0,0,0,0,0,0,0,0,0,0,0,0,
0,0,0,0,0,0,0,0,1847,1848,0,0,0,0,0,0,0,0,0,0,0,0,0,0,0,0,0,0,0,0,0,0,0,0,0,0,0,0,
0,0,0,0,0,0,0,0,1879,1880,0,0,0,0,0,0,0,0,0,0,0,0,0,0,0,0,0,0,0,0,0,0,0,0,0,0,0,0,
0,0,0,0,0,0,0,0,1911,1912,0,0,0,0,0,0,0,0,0,0,0,0,0,0,0,0,0,0,0,0,0,0,0,0,0,0,0,0,
0,0,0,0,0,0,0,0,0,0,0,0,0,0,0,0,0,0,0,0,0,0,0,0,0,0,0,0,0,0,0,0,0,0,0,0,0,0,
0,0,0,0,0,0,0,0,0,0,0,0,0,0,0,0,0,0,0,0,0,0,0,0,0,0,0,0,0,0,0,0,0,0,0,0,0,0,
0,0,0,0,0,0,0,0,0,0,0,0,0,0,0,0,0,0,0,0,0,0,0,0,0,0,0,0,0,0,0,0,0,0,0,0,0,0,
0,0,0,0,0,0,0,0,0,0,0,0,0,0,0,0,0,0,0,0,0,0,0,0,0,0,0,0,0,0,0,0,0,0,0,0,0,0,
0,0,0,0,0,0,0,0,0,0,0,0,0,0,0,0,0,0,0,0,0,0,0,0,0,0,0,0,0,0,0,0,0,0,0,0,0,0,
0,0,1683,1684,0,0,0,0,0,0,0,0,0,0,0,0,0,0,0,0,0,0,0,0,0,0,0,0,0,0,0,0,0,0,0,0,2082,2083,
0,0,1715,1716,0,0,0,0,0,0,0,0,0,0,0,0,0,0,0,0,0,0,0,0,0,0,0,0,2071,2072,0,0,0,0,0,0,2114,2115,
0,0,1747,1748,0,0,0,0,0,0,0,0,0,0,0,0,0,0,0,0,0,0,0,0,0,0,0,0,2103,2104,0,0,0,0,0,0,2146,2147,
0,0,1779,1780,0,0,0,0,1870,1871,1872,1873,1874,1875,1876,0,0,0,0,0,0,0,0,0,0,0,0,0,0,0,0,0,0,0,0,0,2178,2179,
0,0,0,0,0,0,0,0,1902,1903,1904,1905,1906,1907,1908,0,0,0,0,0,0,0,0,0,0,0,0,0,0,0,0,0,0,0,0,0,0,0,
0,0,0,0,0,0,0,0,1934,1935,1936,1937,1938,1939,1940,0,0,0,0,0,0,0,0,0,0,0,0,0,0,0,0,0,0,0,0,0,0,0,
0,0,0,0,0,0,0,0,1966,1967,1968,1969,1970,1971,1972,0,0,0,0,0,0,0,0,0,0,0,0,0,0,0,0,0,0,0,0,0,0,0
</data>
 </layer>
</map>
